X:1
T:Danny Boy (Londonderry Air)
M:4/4
L:1/4
K:F
 E F G| A3 G| A d c A| G- F D2-| D| F A B| c3 d| c A F A| G4-| G| E F G|\
 A3 G| A d c A| G- F D2-| D| E F G| A3 B| A G F G| F4-| F| c d e| f3 e|\
 e d c d| c- A F2-| F| c d e| f3 e| e d c A| G4-| G| c c c| a3 g| g f d f|\
 c- A F2-| F| E F G| A d c A| G F D E| F4-| F||
